svgs/sharp-light/id-card.svg

<svg xmlns="http://www.w3.org/2000/svg" viewBox="0 0 576 512"><!--! Font Awesome Pro 6.6.0 by @fontawesome - https://fontawesome.com License - https://fontawesome.com/license (Commercial License) Copyright 2024 Fonticons, Inc. --><path d="M32 64l0 32 512 0 0-32L32 64zM0 112L0 64 0 32l32 0 512 0 32 0 0 32 0 48 0 336 0 32-32 0L32 480 0 480l0-32L0 112zm544 16L32 128l0 320 512 0 0-320zM192 256a32 32 0 1 0 0-64 32 32 0 1 0 0 64zm0-96a64 64 0 1 1 0 128 64 64 0 1 1 0-128zM113.7 416L80 416l32-96 160 0 32 96-33.7 0-21.3-64-113.9 0-21.3 64zM336 192l16 0 128 0 16 0 0 32-16 0-128 0-16 0 0-32zm0 64l16 0 128 0 16 0 0 32-16 0-128 0-16 0 0-32zm0 64l16 0 128 0 16 0 0 32-16 0-128 0-16 0 0-32z"/></svg>

<svg xmlns="http://www.w3.org/2000/svg" viewBox="0 0 576 512"><!--! Font Awesome Pro 6.4.0 by @fontawesome - https://fontawesome.com License - https://fontawesome.com/license (Commercial License) Copyright 2023 Fonticons, Inc. --><path d="M32 64V96H544V64H32zM0 112V64 32H32 544h32V64v48V448v32H544 32 0V448 112zm544 16H32V448H544V128zM192 256a32 32 0 1 0 0-64 32 32 0 1 0 0 64zm0-96a64 64 0 1 1 0 128 64 64 0 1 1 0-128zM113.7 416H80l32-96H272l32 96H270.3l-21.3-64H135.1l-21.3 64zM336 192h16H480h16v32H480 352 336V192zm0 64h16H480h16v32H480 352 336V256zm0 64h16H480h16v32H480 352 336V320z"/></svg>
